Origami/24x24/apps/pcbcalculator.svg

<svg width="24" height="24" version="1" xmlns="http://www.w3.org/2000/svg">
 <rect x="2" y="2.5" width="20" height="20" rx="1" ry="1" style="opacity:.2"/>
 <path d="m21 22c0.554 0 1-0.446 1-1v-9h-11v10z" style="fill:#6aa22a"/>
 <path d="m3 22c-0.554 0-1-0.446-1-1v-10h10v11z" style="fill:#71c454"/>
 <path d="m2 12v-9c0-0.554 0.446-1 1-1h10v10z" style="fill:#86d478"/>
 <path d="m12 2v10h10v-9c0-0.554-0.446-1-1-1z" style="fill:#36862c"/>
 <path d="m2 3.5v-0.5c0-0.554 0.446-1 1-1h18c0.554 0 1 0.446 1 1v0.5c0-0.554-0.446-1-1-1h-18c-0.554 0-1 0.446-1 1z" style="fill:#ffffff;opacity:.2"/>
 <circle cx="17" cy="17" r="6" style="fill:#3f3f3f"/>
 <path d="m15 15v1h4v-1zm0 2v1h4v-1z" style="fill:#ffffff"/>
 <path d="m15 7v1h4v-1z" style="fill:#3f3f3f"/>
 <path d="m8 5.5v1.5h1.5v1h-1.5v1.5h-1v-1.5h-1.5v-1h1.5v-1.5z" style="fill:#3f3f3f"/>
 <path d="M 5.707,14.586 5,15.293 5.3535,15.647 6.5,16.793 5.3535,17.94 5,18.293 5.707,19 6.0605,18.646 7.207,17.5 8.3535,18.646 8.7071,19 9.4141,18.293 9.0606,17.939 7.9141,16.793 9.0606,15.646 9.4142,15.292 8.7071,14.585 8.3536,14.939 7.2071,16.085 6.0606,14.939 5.7071,14.586 Z" style="fill:#3f3f3f"/>
</svg>

<svg xmlns="http://www.w3.org/2000/svg" width="24" height="24" version="1">
 <rect style="opacity:0.2" width="20" height="20" x="2" y="2.5" rx="1" ry="1"/>
 <path style="fill:#6aa22a" d="M 21,22 C 21.554,22 22,21.554 22,21 V 12 H 11 V 22 Z"/>
 <path style="fill:#71c454" d="M 3,22 C 2.446,22 2,21.554 2,21 V 11 H 12 V 22 Z"/>
 <path style="fill:#86d478" d="M 2,12 V 3 C 2,2.446 2.446,2 3,2 H 13 V 12 Z"/>
 <path style="fill:#36862c" d="M 12,2 V 12 H 22 V 3 C 22,2.446 21.554,2 21,2 Z"/>
 <path style="opacity:0.2;fill:#ffffff" d="M 2,3.5 V 3 C 2,2.446 2.446,2 3,2 H 21 C 21.554,2 22,2.446 22,3 V 3.5 C 22,2.946 21.554,2.5 21,2.5 H 3 C 2.446,2.5 2,2.946 2,3.5 Z"/>
 <circle style="fill:#3f3f3f" cx="17" cy="17" r="6"/>
 <path style="fill:#ffffff" d="M 15,15 V 16 H 19 V 15 Z M 15,17 V 18 H 19 V 17 Z"/>
 <path style="fill:#3f3f3f" d="M 15,7 V 8 H 19 V 7 Z"/>
 <path style="fill:#3f3f3f" d="M 8,5.5 V 7 H 9.5 V 8 H 8 V 9.5 H 7 V 8 H 5.5 V 7 H 7 V 5.5 Z"/>
 <path style="fill:#3f3f3f" d="M 5.707,14.586 5,15.293 5.3535,15.647 6.5,16.793 5.3535,17.94 5,18.293 5.707,19 6.0605,18.646 7.207,17.5 8.3535,18.646 8.7071,19 9.4141,18.293 9.0606,17.939 7.9141,16.793 9.0606,15.646 9.4142,15.292 8.7071,14.585 8.3536,14.939 7.2071,16.085 6.0606,14.939 5.7071,14.586 Z"/>
</svg>
